X: 51
T: JIG: Leitrim Fancy
C: C: Trad.; S: Various
C: Set Leaders: Vova, Olya, Anton
Z: Anton Zille ed., Oleg Naumov arr.; JACKB at The Session
N: https://thesession.org/members/26966/sets/96724
R: Jig
M: 6/8
L: 1/8
Q: 3/8=116
K: Emin
|:"Em"GBG "D"FAF|"Em"E2B BAB|"C"GBG FAF|"D"DFA AFD|
"Em"GBG "D"FAF|"Em (C)"E2B BAB|"C"GAB dBG|"D"ABG FED:||
|:"G"GAB dBd|edB dBA|"C"GAB dBG|"D"ABG FED|
"G"GAB dBd|"G"edB "Bm"def|"C"gfe dBG|"D"ABG FED:||

